root/assets/icons/g2e_energy.svg

<svg width="45" height="61" viewBox="0 0 45 61" fill="none" xmlns="http://www.w3.org/2000/svg">
<path d="M36.8846 0.451932L0.971099 29.302C-0.813628 30.7352 0.0239852 34.106 2.16456 34.106H10.2232C11.8382 34.106 12.8784 36.1695 12.1503 37.9146L4.3818 56.427C3.37447 58.8289 5.6519 61.284 7.50232 59.7977L43.4159 30.9476C45.2006 29.5144 44.363 26.1437 42.2224 26.1437H34.1637C32.5487 26.1437 31.5086 24.0801 32.2367 22.335L40.0052 3.82264C41.0125 1.42068 38.7351 -1.03437 36.8846 0.451932Z" fill="url(#paint0_linear_1075_1876)"/>
<path d="M36.4362 5.61103L5.01182 30.404C3.45018 31.6357 4.1831 34.5324 6.0561 34.5324H13.1074C14.5206 34.5324 15.4307 36.3058 14.7936 37.8055L7.99618 53.7145C7.11477 55.7787 9.10752 57.8885 10.7266 56.6112L42.151 31.8182C43.7126 30.5865 42.9797 27.6898 41.1067 27.6898H34.0554C32.6423 27.6898 31.7321 25.9164 32.3692 24.4168L39.1666 8.50774C40.0481 6.44355 38.0553 4.33375 36.4362 5.61103Z" fill="url(#paint1_linear_1075_1876)"/>
<foreignObject x="-17" y="-16" width="74.8389" height="87.7773"><div xmlns="http://www.w3.org/1999/xhtml" style="backdrop-filter:blur(9px);clip-path:url(#bgblur_0_1075_1876_clip_path);height:100%;width:100%"></div></foreignObject><path data-figma-bg-blur-radius="18" d="M34.4082 2.80566C34.5965 2.82946 34.8065 2.9329 34.9951 3.13281C35.3757 3.53629 35.5793 4.24282 35.2686 4.9707L28.4717 20.8799L28.4707 20.8809C28.0545 21.8606 28.1428 22.9278 28.5703 23.7588C28.9975 24.5892 29.8188 25.2676 30.8936 25.2676H37.9443C38.3934 25.2676 38.8136 25.6097 38.9795 26.2656C39.144 26.916 38.9685 27.5929 38.4932 27.9678L7.06934 52.7607C6.82164 52.9561 6.60506 52.9936 6.43066 52.9717C6.24239 52.948 6.0324 52.8444 5.84375 52.6445C5.46322 52.2412 5.25892 51.5344 5.56934 50.8066L12.3672 34.8975L12.3682 34.8955C12.7843 33.9158 12.6961 32.8486 12.2686 32.0176C11.8413 31.1873 11.0199 30.5098 9.94531 30.5098H2.89355C2.44477 30.5095 2.02534 30.1672 1.85938 29.5117C1.69488 28.8615 1.86962 28.1845 2.34473 27.8096H2.3457L33.7695 3.0166C34.0172 2.8212 34.2338 2.78372 34.4082 2.80566Z" fill="url(#paint2_linear_1075_1876)" stroke="url(#paint3_linear_1075_1876)" stroke-width="1.6"/>
<defs>
<clipPath id="bgblur_0_1075_1876_clip_path" transform="translate(17 16)"><path d="M34.4082 2.80566C34.5965 2.82946 34.8065 2.9329 34.9951 3.13281C35.3757 3.53629 35.5793 4.24282 35.2686 4.9707L28.4717 20.8799L28.4707 20.8809C28.0545 21.8606 28.1428 22.9278 28.5703 23.7588C28.9975 24.5892 29.8188 25.2676 30.8936 25.2676H37.9443C38.3934 25.2676 38.8136 25.6097 38.9795 26.2656C39.144 26.916 38.9685 27.5929 38.4932 27.9678L7.06934 52.7607C6.82164 52.9561 6.60506 52.9936 6.43066 52.9717C6.24239 52.948 6.0324 52.8444 5.84375 52.6445C5.46322 52.2412 5.25892 51.5344 5.56934 50.8066L12.3672 34.8975L12.3682 34.8955C12.7843 33.9158 12.6961 32.8486 12.2686 32.0176C11.8413 31.1873 11.0199 30.5098 9.94531 30.5098H2.89355C2.44477 30.5095 2.02534 30.1672 1.85938 29.5117C1.69488 28.8615 1.86962 28.1845 2.34473 27.8096H2.3457L33.7695 3.0166C34.0172 2.8212 34.2338 2.78372 34.4082 2.80566Z"/>
</clipPath><linearGradient id="paint0_linear_1075_1876" x1="9.21041" y1="58.7958" x2="47.2595" y2="1.59897" gradientUnits="userSpaceOnUse">
<stop stop-color="#FFDC4A"/>
<stop offset="1" stop-color="#F37322"/>
</linearGradient>
<linearGradient id="paint1_linear_1075_1876" x1="12.2212" y1="55.7502" x2="44.6882" y2="6.05714" gradientUnits="userSpaceOnUse">
<stop stop-color="#FFDC4A"/>
<stop offset="1" stop-color="#F37322"/>
</linearGradient>
<linearGradient id="paint2_linear_1075_1876" x1="25.1489" y1="61.8427" x2="32.109" y2="5.37435" gradientUnits="userSpaceOnUse">
<stop stop-color="white" stop-opacity="0.2"/>
<stop offset="1" stop-color="white"/>
</linearGradient>
<linearGradient id="paint3_linear_1075_1876" x1="37.3687" y1="10.8127" x2="-9.32369" y2="54.227" gradientUnits="userSpaceOnUse">
<stop stop-color="white" stop-opacity="0.8"/>
<stop offset="1" stop-color="white" stop-opacity="0"/>
</linearGradient>
</defs>
</svg>

<svg xmlns="http://www.w3.org/2000/svg" width="45" height="61" fill="none" viewBox="0 0 45 61"><path fill="url(#a)" d="M36.885.452.97 29.302c-1.785 1.433-.947 4.804 1.194 4.804h8.058c1.615 0 2.655 2.063 1.927 3.809L4.382 56.427c-1.008 2.402 1.27 4.857 3.12 3.37l35.914-28.85c1.785-1.433.947-4.803-1.194-4.803h-8.058c-1.615 0-2.655-2.064-1.927-3.809l7.768-18.512c1.008-2.402-1.27-4.857-3.12-3.371"/><path fill="url(#b)" d="M36.436 5.611 5.012 30.404c-1.562 1.232-.829 4.128 1.044 4.128h7.051c1.414 0 2.324 1.774 1.687 3.274L7.996 53.715c-.881 2.064 1.112 4.173 2.73 2.896l31.425-24.793c1.562-1.232.829-4.128-1.044-4.128h-7.052c-1.413 0-2.323-1.774-1.686-3.273l6.798-15.91c.881-2.063-1.112-4.173-2.73-2.896"/><foreignObject width="74.839" height="87.777" x="-17" y="-16"><div xmlns="http://www.w3.org/1999/xhtml" style="backdrop-filter:blur(9px);clip-path:url(#c);height:100%;width:100%"/></foreignObject><path fill="url(#d)" stroke="url(#e)" stroke-width="1.6" d="M34.408 2.806c.188.023.398.127.587.327.38.403.584 1.11.274 1.838L28.472 20.88h-.001a3.41 3.41 0 0 0 .1 2.879c.426.83 1.248 1.509 2.323 1.509h7.05c.45 0 .87.342 1.035.998.165.65-.01 1.327-.486 1.702L7.07 52.76c-.247.195-.464.233-.638.21-.189-.023-.399-.127-.587-.326-.38-.404-.585-1.11-.275-1.838l6.798-15.91.001-.002a3.42 3.42 0 0 0-.1-2.877c-.427-.83-1.248-1.508-2.323-1.508H2.894c-.45 0-.869-.343-1.035-.998-.164-.65.01-1.328.486-1.702L33.77 3.017c.247-.196.464-.233.638-.211Z" data-figma-bg-blur-radius="18"/><defs><linearGradient id="a" x1="9.21" x2="47.26" y1="58.796" y2="1.599" gradientUnits="userSpaceOnUse"><stop stop-color="#ffdc4a"/><stop offset="1" stop-color="#f37322"/></linearGradient><linearGradient id="b" x1="12.221" x2="44.688" y1="55.75" y2="6.057" gradientUnits="userSpaceOnUse"><stop stop-color="#ffdc4a"/><stop offset="1" stop-color="#f37322"/></linearGradient><linearGradient id="d" x1="25.149" x2="32.109" y1="61.843" y2="5.374" gradientUnits="userSpaceOnUse"><stop stop-color="#fff" stop-opacity=".2"/><stop offset="1" stop-color="#fff"/></linearGradient><linearGradient id="e" x1="37.369" x2="-9.324" y1="10.813" y2="54.227" gradientUnits="userSpaceOnUse"><stop stop-color="#fff" stop-opacity=".8"/><stop offset="1" stop-color="#fff" stop-opacity="0"/></linearGradient><clipPath id="c" transform="translate(17 16)"><path d="M34.408 2.806c.188.023.398.127.587.327.38.403.584 1.11.274 1.838L28.472 20.88h-.001a3.41 3.41 0 0 0 .1 2.879c.426.83 1.248 1.509 2.323 1.509h7.05c.45 0 .87.342 1.035.998.165.65-.01 1.327-.486 1.702L7.07 52.76c-.247.195-.464.233-.638.21-.189-.023-.399-.127-.587-.326-.38-.404-.585-1.11-.275-1.838l6.798-15.91.001-.002a3.42 3.42 0 0 0-.1-2.877c-.427-.83-1.248-1.508-2.323-1.508H2.894c-.45 0-.869-.343-1.035-.998-.164-.65.01-1.328.486-1.702L33.77 3.017c.247-.196.464-.233.638-.211"/></clipPath></defs></svg>
